src/svg/16/donate_oultine_16.svg

<svg width="16" height="16" viewBox="0 0 16 16" fill="none" xmlns="http://www.w3.org/2000/svg">
<path d="M6.09723 11.0003L8 10L9.90277 11.0003C10.0862 11.0968 10.3005 10.941 10.2655 10.7368L9.90211 8.61803L11.4415 7.11751C11.5899 6.97288 11.508 6.72089 11.3029 6.69109L9.17557 6.38197L8.22418 4.45425C8.13248 4.26844 7.86752 4.26843 7.77582 4.45425L6.82443 6.38197L4.69706 6.69109C4.49201 6.72089 4.41013 6.97288 4.55851 7.11751L6.09789 8.61803L5.73449 10.7368C5.69946 10.941 5.91382 11.0968 6.09723 11.0003Z" fill="currentColor"/>
<path fill-rule="evenodd" clip-rule="evenodd" d="M8 1.5C4.41015 1.5 1.5 4.41015 1.5 8C1.5 11.5899 4.41015 14.5 8 14.5C11.5899 14.5 14.5 11.5899 14.5 8C14.5 4.41015 11.5899 1.5 8 1.5ZM8 3C10.7614 3 13 5.23858 13 8C13 10.7614 10.7614 13 8 13C5.23858 13 3 10.7614 3 8C3 5.23858 5.23858 3 8 3Z" fill="currentColor"/>
</svg>

<svg xmlns="http://www.w3.org/2000/svg" width="16" height="16" fill="none" viewBox="0 0 16 16"><path fill="currentColor" d="M6.0972 11.0003 8 10l1.9028 1.0003c.1834.0965.3977-.0593.3627-.2635L9.9021 8.618l1.5394-1.5005c.1484-.1446.0665-.3966-.1386-.4264L9.1756 6.382l-.9514-1.9277c-.0917-.1859-.3567-.1859-.4484 0L6.8244 6.382l-2.1273.309c-.205.0299-.287.2819-.1386.4265L6.098 8.618l-.3634 2.1188c-.035.2042.1793.36.3627.2635Z M8 2.5C4.9624 2.5 2.5 4.9624 2.5 8s2.4624 5.5 5.5 5.5 5.5-2.4624 5.5-5.5S11.0376 2.5 8 2.5ZM1 8c0-3.866 3.134-7 7-7s7 3.134 7 7-3.134 7-7 7-7-3.134-7-7Z" clip-rule="evenodd"/></svg>
